X:170
T:Gan Ainm
R:Reel
S:Dermot Byrne and Ciaran Tourish, Donegal (accordian and fiddle)
D:"River of Sound"
M:4/4
N:As played, but a bit hard to hear at times
Z:Bernie Stocks
K:D
|: BcdA ~B2dA | D3F ADFA | BE~E2 BdcA |1 (3Bcd eg fddA :|2 (3Bcd eg fddc ||
defg afed | cdef gfec | defg afed | ~f2eg fddc |
defg afed | cdef (3gfg fg | (3.g.g.f ge fded | afge fddA ||
